X:3069
T:Misirlou
C:anon.
O:Greece
F:http://abc.musicaviva.com/tunes/greece/misirlou.abc
M:C|
L:1/4
K:Ephryg
E>F^GA|Bc^dc/B/|B4|B4:|
cB/c/BA|BA/B/A^G|^G4|^G4|
BA/B/A^G|^GF/G/FE|E4|E4|]
W:
W:
W:  From Musica Viva - http://www.musicaviva.com
W:  the Internet center for free sheet music downloads.
